!!!OTL: Lutscha (264), S. 563
!!!id: T0454
**kern
*clefG2
*k[]
*C:
{8c
=1
8c
8c
8c
16e
16e
=2
8g
8g
8g}
8r
=3
{8g
8g
4cc
=4
8b
8a
8g}
=5
{8g
=6
8g
16g
16g
8g
8g
=7
8b
8g
8g}
=8
{8g
=9
16g
16g
16g
16g
8a
8g
=10
8f
8d
8c}
8r
=11
{4a
4a
=12
8g
8f
8e
8g
=13
8g
8g
8g
8g
=14
8g
8g
4e}
=15
{4a
4a
=16
8g
8b
8b
8b
=17
8g
8g
8g
8g
=18
4e}
8r
==
*-
!!!minrhy: 16
!!!meters: 2/4 ]  ZZ[6
!!!cut: Lutscha (264), S. 563
!!!reg: Luxemburg
!!!trd: Singendes Volk, Esch-Alzette, 1937 posth.
!!!rhy1: X_  X_X_X_XX  X_X_X_0_
!!!rhy2: X_X_X__  X_X_X_
!!!key: T0454  16  C 2/4 ]  ZZ[6
!!!mod: HEPTATONIK IONISCH]  AMBITUS[8
!!!kad: 555133
!!!akz: 15_57_57_54_6555_6553_
!!!fot: 'a__b__c__d__bs"e__
!!!for: 'a__b__c__d__e__ew_
!!!fok: '/__^__^__\__\__\__
!! PHRAS[GEMISCHTTAKTIG]
!!!fkt: Scherz-, Spiel-, Spottlied
!!!bem: Rammeldingen, J.P. Gloden, 19.2.1934
!! THILL; Mathias
!! PR[32] 2K[8] 2G[21] 3K[2] 3G[2] 4A[2] 4Ü[0] 5A[2] 6K[0] 6G[2]
!! 7K[0] 7G[0] 8A[0] MEHR[0] SI[36] ABS[66] SR[29] SP[8]
!! ST[18] 2k[6] 2g[14] 3k[5] 3g[6] 4d[2] 4ü[0] 5d[0] 6k[0] 6g[0]
!! 7k[0] 7g[0] 8d[0] mehr[0] si[32] dm[+4] sr[20] sp[12]
!! 1F[26] 2F[57] 3F[14] 4F[0] LF[0] 2P[3] 3P[0] 4P[0] TRI[0] DF[4] AB[70]
!! TF[0] U3K[0] U3[0] U4[0] U4Ü[0] U5[4] U6K[0] U6[0] U7K[0] U7[0]
!! N1[19] N2K[0] N2[13] N3K[0] N3[33] N4[15] N4Ü[0] N5[13] N6K[0] N6[1]
!!!n7k: 0] N7[0] O1[0] O2K[0] O2[0] O3K[0] O3[0] HÖ[0
